; G-Code generated by Simplify3D(R) Version 4.0.0
; Jan 14, 2018 at 11:21:14 AM
; Settings Summary
;   processName,Process1
;   applyToModels,CR-10_Ultimate_Leveling_knob_attachment
;   profileName,Creality CR-10 (modified)
;   profileVersion,2018-01-07 17:26:38
;   baseProfile,Default
;   printMaterial,PLA
;   printQuality,Medium
;   printExtruders,
;   extruderName,Extruder 1
;   extruderToolheadNumber,0
;   extruderDiameter,0.4
;   extruderAutoWidth,1
;   extruderWidth,0.48
;   extrusionMultiplier,0.97
;   extruderUseRetract,1
;   extruderRetractionDistance,5
;   extruderExtraRestartDistance,0
;   extruderRetractionZLift,0.08
;   extruderRetractionSpeed,5400
;   extruderUseCoasting,0
;   extruderCoastingDistance,0.2
;   extruderUseWipe,1
;   extruderWipeDistance,5
;   primaryExtruder,0
;   layerHeight,0.2
;   topSolidLayers,4
;   bottomSolidLayers,4
;   perimeterOutlines,3
;   printPerimetersInsideOut,1
;   startPointOption,2
;   startPointOriginX,0
;   startPointOriginY,0
;   sequentialIslands,0
;   spiralVaseMode,0
;   firstLayerHeightPercentage,90
;   firstLayerWidthPercentage,100
;   firstLayerUnderspeed,0.2
;   useRaft,0
;   raftExtruder,0
;   raftTopLayers,3
;   raftBaseLayers,2
;   raftOffset,3
;   raftSeparationDistance,0.14
;   raftTopInfill,100
;   aboveRaftSpeedMultiplier,0.3
;   useSkirt,1
;   skirtExtruder,0
;   skirtLayers,1
;   skirtOutlines,1
;   skirtOffset,5
;   usePrimePillar,0
;   primePillarExtruder,999
;   primePillarWidth,12
;   primePillarLocation,7
;   primePillarSpeedMultiplier,1
;   useOozeShield,0
;   oozeShieldExtruder,999
;   oozeShieldOffset,2
;   oozeShieldOutlines,1
;   oozeShieldSidewallShape,1
;   oozeShieldSidewallAngle,30
;   oozeShieldSpeedMultiplier,1
;   infillExtruder,0
;   internalInfillPattern,Fast Honeycomb
;   externalInfillPattern,Rectilinear
;   infillPercentage,7
;   outlineOverlapPercentage,15
;   infillExtrusionWidthPercentage,100
;   minInfillLength,5
;   infillLayerInterval,1
;   internalInfillAngles,0
;   overlapInternalInfillAngles,0
;   externalInfillAngles,45,-45
;   generateSupport,0
;   supportExtruder,0
;   supportInfillPercentage,30
;   supportExtraInflation,0
;   supportBaseLayers,0
;   denseSupportExtruder,0
;   denseSupportLayers,0
;   denseSupportInfillPercentage,70
;   supportLayerInterval,1
;   supportHorizontalPartOffset,0.2
;   supportUpperSeparationLayers,1
;   supportLowerSeparationLayers,1
;   supportType,0
;   supportGridSpacing,4
;   maxOverhangAngle,60
;   supportAngles,0
;   temperatureName,Extruder 1 Temperature,Heated Bed
;   temperatureNumber,0,0
;   temperatureSetpointCount,2,1
;   temperatureSetpointLayers,1,2,1
;   temperatureSetpointTemperatures,210,205,0
;   temperatureStabilizeAtStartup,1,1
;   temperatureHeatedBed,0,1
;   temperatureRelayBetweenLayers,0,0
;   temperatureRelayBetweenLoops,0,0
;   fanLayers,1,3,5,6
;   fanSpeeds,0,30,50,100
;   blipFanToFullPower,0
;   adjustSpeedForCooling,1
;   minSpeedLayerTime,15
;   minCoolingSpeedSlowdown,20
;   increaseFanForCooling,1
;   minFanLayerTime,45
;   maxCoolingFanSpeed,50
;   increaseFanForBridging,1
;   bridgingFanSpeed,100
;   use5D,1
;   relativeEdistances,0
;   allowEaxisZeroing,1
;   independentExtruderAxes,0
;   includeM10123,0
;   stickySupport,1
;   applyToolheadOffsets,0
;   gcodeXoffset,0
;   gcodeYoffset,0
;   gcodeZoffset,0
;   overrideMachineDefinition,1
;   machineTypeOverride,0
;   strokeXoverride,300
;   strokeYoverride,300
;   strokeZoverride,400
;   originOffsetXoverride,0
;   originOffsetYoverride,0
;   originOffsetZoverride,0
;   homeXdirOverride,-1
;   homeYdirOverride,-1
;   homeZdirOverride,-1
;   flipXoverride,1
;   flipYoverride,-1
;   flipZoverride,1
;   toolheadOffsets,0,0|0,0|0,0|0,0|0,0|0,0
;   overrideFirmwareConfiguration,1
;   firmwareTypeOverride,RepRap (Marlin/Repetier/Sprinter)
;   GPXconfigOverride,r2
;   baudRateOverride,115200
;   overridePrinterModels,0
;   printerModelsOverride
;   startingGcode,G28 ; home all axes
;   layerChangeGcode,
;   retractionGcode,
;   toolChangeGcode,
;   endingGcode,G1 E-3 F3600; retract 3mm,G28 X; home x axis,M104 S0 ; turn off extruder,M140 S0 ; turn off bed,M84 ; disable motors
;   exportFileFormat,gcode
;   celebration,0
;   celebrationSong,Random Song
;   postProcessing,
;   defaultSpeed,3600
;   outlineUnderspeed,0.5
;   solidInfillUnderspeed,0.8
;   supportUnderspeed,0.8
;   rapidXYspeed,10800
;   rapidZspeed,1002
;   minBridgingArea,20
;   bridgingExtraInflation,0
;   bridgingExtrusionMultiplier,1
;   bridgingSpeedMultiplier,1
;   useFixedBridgingAngle,0
;   fixedBridgingAngle,0
;   applyBridgingToPerimeters,0
;   filamentDiameters,1.75|1.75|1.75|1.75|1.75|1.75
;   filamentPricesPerKg,30|30|30|30|30|30
;   filamentDensities,1.25|1.25|1.25|1.25|1.25|1.25
;   useMinPrintHeight,0
;   minPrintHeight,200
;   useMaxPrintHeight,0
;   maxPrintHeight,0
;   useDiaphragm,0
;   diaphragmLayerInterval,20
;   robustSlicing,1
;   mergeAllIntoSolid,0
;   onlyRetractWhenCrossingOutline,1
;   retractBetweenLayers,0
;   useRetractionMinTravel,1
;   retractionMinTravel,2
;   retractWhileWiping,1
;   onlyWipeOutlines,1
;   avoidCrossingOutline,0
;   maxMovementDetourFactor,3
;   toolChangeRetractionDistance,12
;   toolChangeExtraRestartDistance,-0.5
;   toolChangeRetractionSpeed,600
;   externalThinWallType,0
;   internalThinWallType,2
;   thinWallAllowedOverlapPercentage,10
;   singleExtrusionMinLength,1
;   singleExtrusionMinPrintingWidthPercentage,50
;   singleExtrusionMaxPrintingWidthPercentage,200
;   singleExtrusionEndpointExtension,0.2
;   horizontalSizeCompensation,0
G90
M82
M106 S0
M140 S0
M104 S210 T0
M109 S210 T0
G28 ; home all axes
G92 E0
G1 E-5.0000 F5400
G1 Z0.260 F1002
; process Process1
; layer 1, Z = 0.180
T0
; tool H0.200 W0.480
; skirt
G1 X123.855 Y124.208 F10800
G1 Z0.180 F1002
G1 E0.0000 F1620
G92 E0
G1 X124.211 Y123.852 E0.0195 F720
G1 X124.219 Y123.844 E0.0199
G1 X129.379 Y119.611 E0.2783
G1 X129.389 Y119.604 E0.2788
G1 X129.807 Y119.325 E0.2982
G1 X129.817 Y119.319 E0.2987
G1 X135.703 Y116.172 E0.5571
G1 X135.713 Y116.167 E0.5576
G1 X136.179 Y115.974 E0.5771
G1 X136.190 Y115.970 E0.5775
G1 X142.577 Y114.033 E0.8359
G1 X142.589 Y114.030 E0.8364
G1 X143.081 Y113.932 E0.8558
G1 X143.093 Y113.931 E0.8563
G1 X149.737 Y113.275 E1.1148
G1 X149.749 Y113.274 E1.1152
G1 X150.253 Y113.274 E1.1347
G1 X150.265 Y113.275 E1.1352
G1 X156.907 Y113.931 E1.3936
G1 X156.919 Y113.932 E1.3941
G1 X157.411 Y114.030 E1.4135
G1 X157.423 Y114.033 E1.4139
G1 X163.810 Y115.970 E1.6724
G1 X163.822 Y115.974 E1.6728
G1 X164.287 Y116.167 E1.6923
G1 X164.297 Y116.172 E1.6928
G1 X170.185 Y119.319 E1.9512
G1 X170.195 Y119.325 E1.9517
G1 X170.613 Y119.604 E1.9712
G1 X170.623 Y119.611 E1.9716
G1 X175.781 Y123.845 E2.2300
G1 X175.790 Y123.853 E2.2304
G1 X176.145 Y124.208 E2.2499
G1 X176.153 Y124.217 E2.2504
G1 X180.388 Y129.377 E2.5088
G1 X180.395 Y129.387 E2.5092
G1 X180.675 Y129.805 E2.5287
G1 X180.681 Y129.815 E2.5292
G1 X183.828 Y135.703 E2.7876
G1 X183.833 Y135.713 E2.7881
G1 X184.026 Y136.178 E2.8076
G1 X184.030 Y136.190 E2.8080
G1 X185.967 Y142.578 E3.0665
G1 X185.970 Y142.589 E3.0669
G1 X186.068 Y143.082 E3.0864
G1 X186.070 Y143.094 E3.0869
G1 X186.723 Y149.736 E3.3452
G1 X186.724 Y149.748 E3.3457
G1 X186.724 Y150.250 E3.3652
G1 X186.723 Y150.262 E3.3656
G1 X186.070 Y156.904 E3.6240
G1 X186.068 Y156.916 E3.6244
G1 X185.970 Y157.409 E3.6439
G1 X185.967 Y157.420 E3.6444
G1 X184.030 Y163.808 E3.9028
G1 X184.026 Y163.820 E3.9033
G1 X183.833 Y164.285 E3.9228
G1 X183.828 Y164.295 E3.9232
G1 X180.681 Y170.183 E4.1817
G1 X180.675 Y170.193 E4.1821
G1 X180.395 Y170.612 E4.2016
G1 X180.388 Y170.621 E4.2021
G1 X176.154 Y175.781 E4.4605
G1 X176.146 Y175.789 E4.4609
G1 X175.790 Y176.145 E4.4804
G1 X175.782 Y176.153 E4.4809
G1 X170.623 Y180.388 E4.7393
G1 X170.613 Y180.395 E4.7397
G1 X170.193 Y180.676 E4.7593
G1 X170.183 Y180.682 E4.7598
G1 X165.448 Y183.209 E4.9675
G1 X165.185 Y183.414 E4.9804
G1 X165.172 Y183.423 E4.9811
G1 X164.578 Y183.769 E5.0077
G1 X164.564 Y183.776 E5.0083
G1 X163.593 Y184.179 E5.0490
G1 X163.577 Y184.184 E5.0496
G1 X162.908 Y184.361 E5.0764
G1 X162.892 Y184.364 E5.0770
G1 X162.558 Y184.406 E5.0901
G1 X157.425 Y185.966 E5.2978
G1 X157.413 Y185.969 E5.2982
G1 X156.919 Y186.067 E5.3178
G1 X156.907 Y186.069 E5.3182
G1 X150.264 Y186.723 E5.5766
G1 X150.253 Y186.724 E5.5771
G1 X149.750 Y186.724 E5.5966
G1 X149.738 Y186.723 E5.5970
G1 X143.094 Y186.069 E5.8555
G1 X143.082 Y186.067 E5.8560
G1 X142.588 Y185.969 E5.8754
G1 X142.577 Y185.966 E5.8759
G1 X136.189 Y184.028 E6.1343
G1 X136.178 Y184.024 E6.1348
G1 X135.714 Y183.832 E6.1543
G1 X135.703 Y183.827 E6.1547
G1 X129.817 Y180.681 E6.4131
G1 X129.807 Y180.675 E6.4135
G1 X129.388 Y180.395 E6.4330
G1 X129.379 Y180.388 E6.4335
G1 X124.219 Y176.153 E6.6919
G1 X124.210 Y176.145 E6.6924
G1 X123.855 Y175.790 E6.7119
G1 X123.847 Y175.781 E6.7123
G1 X119.612 Y170.621 E6.9707
G1 X119.605 Y170.612 E6.9712
G1 X119.325 Y170.193 E6.9907
G1 X119.319 Y170.183 E6.9911
G1 X116.172 Y164.295 E7.2496
G1 X116.167 Y164.285 E7.2501
G1 X115.974 Y163.819 E7.2695
G1 X115.970 Y163.808 E7.2700
G1 X114.033 Y157.420 E7.5284
G1 X114.031 Y157.409 E7.5289
G1 X113.933 Y156.916 E7.5484
G1 X113.931 Y156.904 E7.5488
G1 X113.277 Y150.262 E7.8072
G1 X113.276 Y150.251 E7.8076
G1 X113.276 Y149.747 E7.8271
G1 X113.277 Y149.736 E7.8276
G1 X113.931 Y143.094 E8.0860
G1 X113.933 Y143.082 E8.0864
G1 X114.031 Y142.589 E8.1059
G1 X114.033 Y142.578 E8.1063
G1 X115.970 Y136.190 E8.3648
G1 X115.974 Y136.179 E8.3652
G1 X116.167 Y135.713 E8.3847
G1 X116.172 Y135.703 E8.3852
G1 X119.319 Y129.815 E8.6436
G1 X119.325 Y129.805 E8.6441
G1 X119.605 Y129.387 E8.6636
G1 X119.612 Y129.377 E8.6640
G1 X123.847 Y124.217 E8.9225
G1 X123.855 Y124.208 E8.9229
G92 E0
G1 E-5.0000 F5400
G1 Z0.260 F1002
; inner perimeter
G1 X128.590 Y128.589 F10800
G1 Z0.180 F1002
G1 E0.0000 F5400
G92 E0
G1 X133.179 Y124.824 E0.2298 F540
G1 X138.413 Y122.026 E0.4596
G1 X144.093 Y120.303 E0.6894
G1 X150.001 Y119.720 E0.9192
G1 X155.907 Y120.303 E1.1490
G1 X161.588 Y122.026 E1.3788
G1 X166.823 Y124.824 E1.6086
G1 X171.410 Y128.589 E1.8383
G1 X175.176 Y133.177 E2.0681
G1 X177.974 Y138.412 E2.2980
G1 X179.697 Y144.093 E2.5278
G1 X180.278 Y149.999 E2.7575
G1 X179.697 Y155.905 E2.9873
G1 X177.974 Y161.586 E3.2171
G1 X175.176 Y166.821 E3.4469
G1 X171.410 Y171.410 E3.6767
G1 X166.823 Y175.175 E3.9065
G1 X161.928 Y177.788 E4.1213
G1 X161.612 Y178.034 E4.1368
G1 X161.215 Y178.083 E4.1523
G1 X155.907 Y179.696 E4.3671
G1 X150.001 Y180.278 E4.5968
G1 X144.093 Y179.696 E4.8267
G1 X138.413 Y177.973 E5.0565
G1 X133.179 Y175.176 E5.2862
G1 X128.590 Y171.410 E5.5160
G1 X124.824 Y166.821 E5.7459
G1 X122.026 Y161.586 E5.9757
G1 X120.304 Y155.905 E6.2055
G1 X119.722 Y149.999 E6.4353
G1 X120.304 Y144.093 E6.6650
G1 X122.026 Y138.412 E6.8948
G1 X124.824 Y133.177 E7.1246
G1 X128.590 Y128.589 E7.3545
G1 X128.249 Y128.248 F10800
G92 E0
G1 X132.911 Y124.423 E0.2334 F540
G1 X138.228 Y121.580 E0.4669
G1 X143.999 Y119.830 E0.7003
G1 X150.001 Y119.238 E0.9338
G1 X156.001 Y119.830 E1.1673
G1 X161.772 Y121.580 E1.4007
G1 X167.091 Y124.423 E1.6342
G1 X171.751 Y128.247 E1.8676
G1 X175.577 Y132.909 E2.1011
G1 X178.420 Y138.228 E2.3346
G1 X180.170 Y143.999 E2.5680
G1 X180.760 Y149.999 E2.8014
G1 X180.170 Y155.999 E3.0349
G1 X178.420 Y161.770 E3.2683
G1 X175.577 Y167.089 E3.5018
G1 X171.751 Y171.751 E3.7353
G1 X167.091 Y175.576 E3.9687
G1 X162.191 Y178.192 E4.1838
G1 X161.871 Y178.440 E4.1994
G1 X161.717 Y178.504 E4.2059
G1 X161.315 Y178.554 E4.2216
G1 X156.001 Y180.170 E4.4366
G1 X150.001 Y180.760 E4.6700
G1 X143.999 Y180.169 E4.9035
G1 X138.228 Y178.418 E5.1370
G1 X132.911 Y175.577 E5.3704
G1 X128.249 Y171.751 E5.6039
G1 X124.423 Y167.089 E5.8373
G1 X121.580 Y161.770 E6.0708
G1 X119.831 Y155.999 E6.3043
G1 X119.240 Y149.999 E6.5377
G1 X119.831 Y143.999 E6.7711
G1 X121.580 Y138.228 E7.0046
G1 X124.423 Y132.909 E7.2381
G1 X128.249 Y128.248 E7.4716
; outer perimeter
G1 X127.908 Y127.906 F10800
G92 E0
G1 X132.643 Y124.022 E0.2371 F360
G1 X138.044 Y121.134 E0.4742
G1 X143.905 Y119.357 E0.7113
G1 X150.001 Y118.755 E0.9485
G1 X156.095 Y119.357 E1.1856
G1 X161.957 Y121.134 E1.4227
G1 X167.359 Y124.022 E1.6598
G1 X172.092 Y127.906 E1.8969
G1 X175.978 Y132.641 E2.1340
G1 X178.866 Y138.043 E2.3712
G1 X180.643 Y143.905 E2.6083
G1 X181.243 Y149.999 E2.8454
G1 X180.643 Y156.093 E3.0825
G1 X178.866 Y161.955 E3.3196
G1 X175.978 Y167.357 E3.5567
G1 X172.092 Y172.092 E3.7939
G1 X167.359 Y175.978 E4.0310
G1 X162.453 Y178.596 E4.2462
G1 X162.115 Y178.859 E4.2628
G1 X161.841 Y178.973 E4.2743
G1 X161.415 Y179.026 E4.2909
G1 X156.095 Y180.643 E4.5062
G1 X150.001 Y181.243 E4.7433
G1 X143.905 Y180.643 E4.9804
G1 X138.044 Y178.864 E5.2176
G1 X132.643 Y175.978 E5.4546
G1 X127.908 Y172.092 E5.6918
G1 X124.022 Y167.357 E5.9289
G1 X121.134 Y161.955 E6.1660
G1 X119.357 Y156.093 E6.4032
G1 X118.757 Y149.999 E6.6403
G1 X119.357 Y143.905 E6.8773
G1 X121.134 Y138.043 E7.1145
G1 X124.022 Y132.641 E7.3516
G1 X127.908 Y127.906 E7.5887
G1 X131.774 Y124.735 F3600
; inner perimeter
G1 X136.432 Y127.397 F10800
G92 E0
G1 X131.470 Y131.468 E0.2485 F540
G1 X128.212 Y135.440 E0.4474
G1 X127.517 Y136.728 E0.5040
G1 X140.255 Y144.084 E1.0735
G1 X141.207 Y142.865 E1.1334
G1 X141.682 Y142.315 E1.1615
G1 X142.185 Y141.804 E1.1893
G1 X142.723 Y141.323 E1.2172
G1 X143.925 Y140.373 E1.2765
G1 X136.432 Y127.397 E1.8566
G1 X136.299 Y128.127 F10800
G92 E0
G1 X131.811 Y131.809 E0.2247 F540
G1 X128.612 Y135.708 E0.4200
G1 X128.161 Y136.546 E0.4568
G1 X140.134 Y143.460 E0.9921
G1 X140.836 Y142.560 E1.0363
G1 X141.329 Y141.990 E1.0655
G1 X141.854 Y141.456 E1.0945
G1 X142.414 Y140.956 E1.1235
G1 X143.302 Y140.254 E1.1673
G1 X136.299 Y128.127 E1.7095
; outer perimeter
G1 X136.166 Y128.857 F10800
G92 E0
G1 X132.152 Y132.150 E0.2010 F360
G1 X129.013 Y135.977 E0.3926
G1 X128.804 Y136.363 E0.4096
G1 X140.012 Y142.835 E0.9107
G1 X140.465 Y142.255 E0.9392
G1 X140.976 Y141.664 E0.9694
G1 X141.523 Y141.108 E0.9996
G1 X142.105 Y140.588 E1.0298
G1 X142.678 Y140.135 E1.0581
G1 X136.166 Y128.857 E1.5623
G1 X132.301 Y132.028 F3600
; inner perimeter
G1 X137.129 Y127.308 F10800
G92 E0
G1 X144.473 Y140.029 E0.5687 F540
G1 X145.779 Y139.491 E0.6234
G1 X146.466 Y139.242 E0.6517
G1 X147.157 Y139.039 E0.6795
G1 X147.857 Y138.881 E0.7073
G1 X149.533 Y138.611 E0.7730
G1 X149.533 Y123.839 E1.3449
G1 X144.888 Y124.296 E1.5256
G1 X139.972 Y125.789 E1.7245
G1 X137.129 Y127.308 E1.8493
G1 X137.792 Y127.497 F10800
G92 E0
G1 X144.678 Y139.425 E0.5332 F540
G1 X145.606 Y139.044 E0.5720
G1 X146.317 Y138.786 E0.6013
G1 X147.036 Y138.574 E0.6303
G1 X147.766 Y138.410 E0.6593
G1 X149.053 Y138.202 E0.7098
G1 X149.053 Y124.369 E1.2453
G1 X144.982 Y124.769 E1.4037
G1 X140.156 Y126.235 E1.5990
G1 X137.792 Y127.497 E1.7027
; outer perimeter
G1 X138.456 Y127.687 F10800
G92 E0
G1 X144.884 Y138.821 E0.4977 F360
G1 X145.433 Y138.596 E0.5207
G1 X146.167 Y138.330 E0.5510
G1 X146.916 Y138.109 E0.5812
G1 X147.675 Y137.938 E0.6113
G1 X148.573 Y137.794 E0.6465
G1 X148.573 Y124.898 E1.1457
G1 X145.076 Y125.242 E1.2818
G1 X140.341 Y126.680 E1.4734
G1 X138.456 Y127.687 E1.5561
G92 E0
G1 X140.123 Y130.574 E-5.0000 F3600
G1 X140.956 Y132.017 F3600
G1 Z0.260 F1002
; inner perimeter
G1 X150.179 Y138.573 F10800
G1 Z0.180 F1002
G1 E0.0000 F5400
G92 E0
G1 X152.145 Y138.882 E0.0771 F540
G1 X152.843 Y139.039 E0.1047
G1 X153.532 Y139.242 E0.1325
G1 X155.313 Y139.895 E0.2060
G1 X162.651 Y127.189 E0.7741
G1 X160.028 Y125.789 E0.8892
G1 X155.112 Y124.296 E1.0881
G1 X150.179 Y123.812 E1.2800
G1 X150.179 Y138.573 E1.8514
G1 X150.659 Y138.162 F10800
G92 E0
G1 X152.235 Y138.410 E0.0618 F540
G1 X152.964 Y138.574 E0.0907
G1 X153.682 Y138.786 E0.1197
G1 X155.100 Y139.305 E0.1781
G1 X161.987 Y127.378 E0.7113
G1 X159.844 Y126.235 E0.8054
G1 X155.018 Y124.769 E1.0006
G1 X150.659 Y124.341 E1.1702
G1 X150.659 Y138.162 E1.7053
; outer perimeter
G1 X151.139 Y137.752 F10800
G92 E0
G1 X152.325 Y137.938 E0.0465 F360
G1 X153.084 Y138.109 E0.0766
G1 X153.833 Y138.330 E0.1068
G1 X154.886 Y138.716 E0.1502
