; G-Code generated by Simplify3D(R) Version 4.0.0
; Jan 8, 2018 at 8:43:54 PM
; Settings Summary
;   processName,Process1
;   applyToModels,ducha
;   profileName,Creality CR-10 (modified)
;   profileVersion,2018-01-07 17:26:38
;   baseProfile,Default
;   printMaterial,PLA
;   printQuality,Medium
;   printExtruders,
;   extruderName,Extruder 1
;   extruderToolheadNumber,0
;   extruderDiameter,0.4
;   extruderAutoWidth,1
;   extruderWidth,0.48
;   extrusionMultiplier,0.97
;   extruderUseRetract,1
;   extruderRetractionDistance,5
;   extruderExtraRestartDistance,0
;   extruderRetractionZLift,0.08
;   extruderRetractionSpeed,5400
;   extruderUseCoasting,0
;   extruderCoastingDistance,0.2
;   extruderUseWipe,1
;   extruderWipeDistance,5
;   primaryExtruder,0
;   layerHeight,0.2
;   topSolidLayers,4
;   bottomSolidLayers,3
;   perimeterOutlines,3
;   printPerimetersInsideOut,1
;   startPointOption,2
;   startPointOriginX,0
;   startPointOriginY,0
;   sequentialIslands,0
;   spiralVaseMode,0
;   firstLayerHeightPercentage,90
;   firstLayerWidthPercentage,100
;   firstLayerUnderspeed,0.2
;   useRaft,0
;   raftExtruder,0
;   raftTopLayers,3
;   raftBaseLayers,2
;   raftOffset,3
;   raftSeparationDistance,0.14
;   raftTopInfill,100
;   aboveRaftSpeedMultiplier,0.3
;   useSkirt,1
;   skirtExtruder,0
;   skirtLayers,1
;   skirtOutlines,1
;   skirtOffset,5
;   usePrimePillar,0
;   primePillarExtruder,999
;   primePillarWidth,12
;   primePillarLocation,7
;   primePillarSpeedMultiplier,1
;   useOozeShield,0
;   oozeShieldExtruder,999
;   oozeShieldOffset,2
;   oozeShieldOutlines,1
;   oozeShieldSidewallShape,1
;   oozeShieldSidewallAngle,30
;   oozeShieldSpeedMultiplier,1
;   infillExtruder,0
;   internalInfillPattern,Fast Honeycomb
;   externalInfillPattern,Rectilinear
;   infillPercentage,30
;   outlineOverlapPercentage,15
;   infillExtrusionWidthPercentage,100
;   minInfillLength,5
;   infillLayerInterval,1
;   internalInfillAngles,0
;   overlapInternalInfillAngles,0
;   externalInfillAngles,45,-45
;   generateSupport,0
;   supportExtruder,0
;   supportInfillPercentage,30
;   supportExtraInflation,0
;   supportBaseLayers,0
;   denseSupportExtruder,0
;   denseSupportLayers,0
;   denseSupportInfillPercentage,70
;   supportLayerInterval,1
;   supportHorizontalPartOffset,0.2
;   supportUpperSeparationLayers,1
;   supportLowerSeparationLayers,1
;   supportType,0
;   supportGridSpacing,4
;   maxOverhangAngle,60
;   supportAngles,0
;   temperatureName,Extruder 1 Temperature,Heated Bed
;   temperatureNumber,0,0
;   temperatureSetpointCount,2,1
;   temperatureSetpointLayers,1,2,1
;   temperatureSetpointTemperatures,210,205,0
;   temperatureStabilizeAtStartup,1,1
;   temperatureHeatedBed,0,1
;   temperatureRelayBetweenLayers,0,0
;   temperatureRelayBetweenLoops,0,0
;   fanLayers,1,3,5,6
;   fanSpeeds,0,30,50,100
;   blipFanToFullPower,0
;   adjustSpeedForCooling,1
;   minSpeedLayerTime,15
;   minCoolingSpeedSlowdown,20
;   increaseFanForCooling,1
;   minFanLayerTime,45
;   maxCoolingFanSpeed,50
;   increaseFanForBridging,1
;   bridgingFanSpeed,100
;   use5D,1
;   relativeEdistances,0
;   allowEaxisZeroing,1
;   independentExtruderAxes,0
;   includeM10123,0
;   stickySupport,1
;   applyToolheadOffsets,0
;   gcodeXoffset,0
;   gcodeYoffset,0
;   gcodeZoffset,0
;   overrideMachineDefinition,1
;   machineTypeOverride,0
;   strokeXoverride,300
;   strokeYoverride,300
;   strokeZoverride,400
;   originOffsetXoverride,0
;   originOffsetYoverride,0
;   originOffsetZoverride,0
;   homeXdirOverride,-1
;   homeYdirOverride,-1
;   homeZdirOverride,-1
;   flipXoverride,1
;   flipYoverride,-1
;   flipZoverride,1
;   toolheadOffsets,0,0|0,0|0,0|0,0|0,0|0,0
;   overrideFirmwareConfiguration,1
;   firmwareTypeOverride,RepRap (Marlin/Repetier/Sprinter)
;   GPXconfigOverride,r2
;   baudRateOverride,115200
;   overridePrinterModels,0
;   printerModelsOverride
;   startingGcode,G28 ; home all axes
;   layerChangeGcode,
;   retractionGcode,
;   toolChangeGcode,
;   endingGcode,G1 E-3 F3600; retract 3mm,G28 X; home x axis,M104 S0 ; turn off extruder,M140 S0 ; turn off bed,M84 ; disable motors
;   exportFileFormat,gcode
;   celebration,0
;   celebrationSong,Random Song
;   postProcessing,
;   defaultSpeed,3600
;   outlineUnderspeed,0.5
;   solidInfillUnderspeed,0.8
;   supportUnderspeed,0.8
;   rapidXYspeed,10800
;   rapidZspeed,1002
;   minBridgingArea,20
;   bridgingExtraInflation,0
;   bridgingExtrusionMultiplier,1
;   bridgingSpeedMultiplier,1
;   useFixedBridgingAngle,0
;   fixedBridgingAngle,0
;   applyBridgingToPerimeters,0
;   filamentDiameters,1.75|1.75|1.75|1.75|1.75|1.75
;   filamentPricesPerKg,30|30|30|30|30|30
;   filamentDensities,1.25|1.25|1.25|1.25|1.25|1.25
;   useMinPrintHeight,0
;   minPrintHeight,200
;   useMaxPrintHeight,0
;   maxPrintHeight,0
;   useDiaphragm,0
;   diaphragmLayerInterval,20
;   robustSlicing,1
;   mergeAllIntoSolid,0
;   onlyRetractWhenCrossingOutline,1
;   retractBetweenLayers,0
;   useRetractionMinTravel,1
;   retractionMinTravel,2
;   retractWhileWiping,1
;   onlyWipeOutlines,1
;   avoidCrossingOutline,0
;   maxMovementDetourFactor,3
;   toolChangeRetractionDistance,12
;   toolChangeExtraRestartDistance,-0.5
;   toolChangeRetractionSpeed,600
;   externalThinWallType,0
;   internalThinWallType,2
;   thinWallAllowedOverlapPercentage,10
;   singleExtrusionMinLength,1
;   singleExtrusionMinPrintingWidthPercentage,50
;   singleExtrusionMaxPrintingWidthPercentage,200
;   singleExtrusionEndpointExtension,0.2
;   horizontalSizeCompensation,0
G90
M82
M106 S0
M140 S0
M104 S210 T0
M109 S210 T0
G28 ; home all axes
G92 E0
G1 E-5.0000 F5400
G1 Z0.260 F1002
; process Process1
; layer 1, Z = 0.180
T0
; tool H0.200 W0.480
; skirt
G1 X121.797 Y79.793 F10800
G1 Z0.180 F1002
G1 E0.0000 F1620
G92 E0
G1 X124.793 Y76.797 E0.1641 F720
G1 X124.881 Y76.760 E0.1678
G1 X175.119 Y76.760 E2.1127
G1 X175.207 Y76.797 E2.1164
G1 X178.203 Y79.793 E2.2804
G1 X178.240 Y79.881 E2.2841
G1 X178.240 Y130.046 E4.2262
G1 X178.206 Y130.131 E4.2298
G1 X175.385 Y133.095 E4.3882
G1 X175.301 Y133.133 E4.3918
G1 X171.843 Y133.303 E4.5258
G1 X170.697 Y133.474 E4.5707
G1 X169.573 Y133.755 E4.6155
G1 X168.483 Y134.146 E4.6604
G1 X167.436 Y134.642 E4.7052
G1 X166.442 Y135.239 E4.7501
G1 X165.513 Y135.930 E4.7949
G1 X164.655 Y136.709 E4.8398
G1 X163.878 Y137.569 E4.8846
G1 X163.190 Y138.500 E4.9295
G1 X162.596 Y139.495 E4.9743
G1 X162.492 Y139.716 E4.9838
G1 X162.492 Y220.119 E8.0966
G1 X162.455 Y220.207 E8.1003
G1 X159.459 Y223.203 E8.2643
G1 X159.370 Y223.240 E8.2680
G1 X140.630 Y223.240 E8.9936
G1 X140.542 Y223.203 E8.9973
G1 X137.545 Y220.207 E9.1613
G1 X137.509 Y220.119 E9.1650
G1 X137.509 Y140.164 E12.2605
G1 X137.421 Y140.031 E12.2666
G1 X136.490 Y138.857 E12.3246
G1 X135.460 Y137.770 E12.3826
G1 X134.337 Y136.777 E12.4406
G1 X133.132 Y135.887 E12.4987
G1 X131.853 Y135.106 E12.5567
G1 X130.511 Y134.441 E12.6147
G1 X129.115 Y133.896 E12.6727
G1 X127.676 Y133.476 E12.7307
G1 X124.184 Y132.783 E12.8685
G1 X124.112 Y132.741 E12.8718
G1 X121.788 Y129.910 E13.0136
G1 X121.760 Y129.831 E13.0168
G1 X121.760 Y79.881 E14.9506
G1 X121.797 Y79.793 E14.9543
G92 E0
G1 E-5.0000 F5400
G1 Z0.260 F1002
; inner perimeter
G1 X128.200 Y83.200 F10800
G1 Z0.180 F1002
G1 E0.0000 F5400
G92 E0
G1 X144.800 Y83.200 E0.6427 F540
G1 X144.800 Y85.800 E0.7433
G1 X130.800 Y85.800 E1.2853
G1 X130.800 Y124.200 E2.7720
G1 X169.200 Y124.200 E4.2586
G1 X169.200 Y85.800 E5.7453
G1 X155.200 Y85.800 E6.2873
G1 X155.200 Y83.200 E6.3879
G1 X171.800 Y83.200 E7.0306
G1 X171.800 Y126.858 E8.7208
G1 X171.210 Y126.887 E8.7437
G1 X169.437 Y127.150 E8.8131
G1 X167.699 Y127.586 E8.8825
G1 X166.012 Y128.191 E8.9518
G1 X164.392 Y128.958 E9.0212
G1 X162.855 Y129.881 E9.0906
G1 X161.417 Y130.950 E9.1600
G1 X160.090 Y132.156 E9.2294
G1 X158.888 Y133.485 E9.2988
G1 X157.823 Y134.926 E9.3682
G1 X156.904 Y136.465 E9.4376
G1 X156.052 Y138.276 E9.5150
G1 X156.052 Y216.800 E12.5551
G1 X143.949 Y216.800 E13.0236
G1 X143.949 Y138.234 E16.0653
G1 X142.644 Y136.253 E16.1572
G1 X141.360 Y134.634 E16.2371
G1 X139.939 Y133.134 E16.3171
G1 X138.392 Y131.765 E16.3971
G1 X136.730 Y130.538 E16.4771
G1 X134.967 Y129.462 E16.5571
G1 X133.116 Y128.544 E16.6370
G1 X131.191 Y127.793 E16.7170
G1 X129.208 Y127.215 E16.7970
G1 X128.200 Y127.015 E16.8368
G1 X128.200 Y83.200 E18.5331
G1 X127.720 Y82.720 F10800
G92 E0
G1 X145.280 Y82.720 E0.6798 F540
G1 X145.280 Y86.280 E0.8177
G1 X131.280 Y86.280 E1.3597
G1 X131.280 Y123.720 E2.8091
G1 X168.720 Y123.720 E4.2586
G1 X168.720 Y86.280 E5.7081
G1 X154.720 Y86.280 E6.2501
G1 X154.720 Y82.720 E6.3879
G1 X172.280 Y82.720 E7.0678
G1 X172.280 Y127.315 E8.7942
G1 X171.257 Y127.365 E8.8339
G1 X169.531 Y127.621 E8.9014
G1 X167.838 Y128.046 E8.9690
G1 X166.196 Y128.635 E9.0366
G1 X164.619 Y129.382 E9.1041
G1 X163.123 Y130.281 E9.1717
G1 X161.722 Y131.322 E9.2392
G1 X160.431 Y132.495 E9.3068
G1 X159.260 Y133.790 E9.3744
G1 X158.223 Y135.193 E9.4419
G1 X157.328 Y136.691 E9.5095
G1 X156.532 Y138.384 E9.5819
G1 X156.532 Y217.280 E12.6364
G1 X143.469 Y217.280 E13.1421
G1 X143.469 Y138.378 E16.1968
G1 X142.254 Y136.534 E16.2822
G1 X140.997 Y134.949 E16.3606
G1 X139.605 Y133.480 E16.4389
G1 X138.090 Y132.139 E16.5173
G1 X136.462 Y130.937 E16.5956
G1 X134.735 Y129.882 E16.6740
G1 X132.922 Y128.984 E16.7523
G1 X131.036 Y128.248 E16.8306
G1 X129.094 Y127.681 E16.9090
G1 X127.720 Y127.409 E16.9632
G1 X127.720 Y82.720 E18.6933
; outer perimeter
G1 X127.240 Y82.240 F10800
G92 E0
G1 X172.760 Y82.240 E1.7623 F360
G1 X172.760 Y127.772 E3.5250
G1 X171.304 Y127.843 E3.5815
G1 X169.625 Y128.093 E3.6472
G1 X167.978 Y128.506 E3.7129
G1 X166.380 Y129.079 E3.7787
G1 X164.846 Y129.806 E3.8444
G1 X163.390 Y130.680 E3.9101
G1 X162.027 Y131.693 E3.9759
G1 X160.771 Y132.834 E4.0416
G1 X159.632 Y134.094 E4.1073
G1 X158.623 Y135.459 E4.1730
G1 X157.752 Y136.917 E4.2388
G1 X157.012 Y138.491 E4.3061
G1 X157.012 Y217.760 E7.3750
G1 X142.989 Y217.760 E7.9179
G1 X142.989 Y138.522 E10.9856
G1 X141.865 Y136.816 E11.0647
G1 X140.634 Y135.263 E11.1414
G1 X139.271 Y133.825 E11.2181
G1 X137.787 Y132.513 E11.2948
G1 X136.194 Y131.335 E11.3715
G1 X134.503 Y130.303 E11.4482
G1 X132.727 Y129.423 E11.5249
G1 X130.882 Y128.703 E11.6016
G1 X128.980 Y128.148 E11.6783
G1 X127.240 Y127.803 E11.7470
G1 X127.240 Y82.240 E13.5109
G1 X132.240 Y82.240 F3600
G1 X131.760 Y86.760 F10800
G92 E0
G1 X131.760 Y123.240 E1.4123 F360
G1 X168.240 Y123.240 E2.8246
G1 X168.240 Y86.760 E4.2369
G1 X154.240 Y86.760 E4.7790
G1 X154.240 Y83.560 E4.9028
G1 X145.760 Y83.560 E5.2311
G1 X145.760 Y86.760 E5.3550
G1 X131.760 Y86.760 E5.8970
G92 E0
G1 X131.760 Y90.093 E-5.0000 F3600
G1 X131.760 Y91.760 F3600
G1 Z0.260 F1002
; gap fill
G1 X146.278 Y83.147 F10800
G1 Z0.180 F1002
G1 E0.0000 F5400
G92 E0
G1 X145.783 Y82.653 E0.0271 F576
G1 X146.462 Y82.653 E0.0533
G1 X146.957 Y83.147 E0.0804
G1 X147.635 Y83.147 E0.1067
G1 X147.141 Y82.653 E0.1338
G1 X147.820 Y82.653 E0.1600
G1 X148.314 Y83.147 E0.1871
G1 X148.993 Y83.147 E0.2134
G1 X148.499 Y82.653 E0.2405
G1 X149.177 Y82.653 E0.2667
G1 X149.672 Y83.147 E0.2938
G1 X150.351 Y83.147 E0.3201
G1 X149.856 Y82.653 E0.3472
G1 X150.535 Y82.653 E0.3734
G1 X151.029 Y83.147 E0.4005
G1 X151.708 Y83.147 E0.4268
G1 X151.214 Y82.653 E0.4539
G1 X151.893 Y82.653 E0.4801
G1 X152.387 Y83.147 E0.5072
G1 X153.066 Y83.147 E0.5335
G1 X152.572 Y82.653 E0.5606
G1 X153.250 Y82.653 E0.5868
G1 X153.745 Y83.147 E0.6139
G1 X154.307 Y83.147 E0.6357
G1 X154.307 Y83.031 E0.6402
G1 X153.929 Y82.653 E0.6609
; solid layer
G1 X155.608 Y85.010 F10800
G92 E0
G1 X155.990 Y85.392 E0.0209 F576
G1 X156.668 Y85.392 E0.0472
G1 X155.608 Y84.332 E0.1052
G1 X155.608 Y83.653 E0.1315
G1 X157.347 Y85.392 E0.2267
G1 X158.026 Y85.392 E0.2530
G1 X156.242 Y83.608 E0.3507
G1 X156.921 Y83.608 E0.3770
G1 X158.705 Y85.392 E0.4746
G1 X159.384 Y85.392 E0.5009
G1 X157.600 Y83.608 E0.5986
G1 X158.278 Y83.608 E0.6249
G1 X160.062 Y85.392 E0.7226
G1 X160.741 Y85.392 E0.7488
G1 X158.957 Y83.608 E0.8465
G1 X159.636 Y83.608 E0.8728
G1 X161.420 Y85.392 E0.9705
G1 X162.099 Y85.392 E0.9967
G1 X160.315 Y83.608 E1.0944
G1 X160.994 Y83.608 E1.1207
G1 X162.778 Y85.392 E1.2184
G1 X163.457 Y85.392 E1.2447
G1 X161.673 Y83.608 E1.3423
G1 X162.351 Y83.608 E1.3686
G1 X164.135 Y85.392 E1.4663
G1 X164.814 Y85.392 E1.4926
G1 X163.030 Y83.608 E1.5902
G1 X163.709 Y83.608 E1.6165
G1 X165.493 Y85.392 E1.7142
G1 X166.172 Y85.392 E1.7405
G1 X164.388 Y83.608 E1.8382
G1 X165.067 Y83.608 E1.8644
G1 X166.851 Y85.392 E1.9621
G1 X167.530 Y85.392 E1.9884
G1 X165.746 Y83.608 E2.0861
G1 X166.424 Y83.608 E2.1123
G1 X168.208 Y85.392 E2.2100
G1 X168.887 Y85.392 E2.2363
G1 X167.103 Y83.608 E2.3340
G1 X167.782 Y83.608 E2.3603
G1 X169.566 Y85.392 E2.4579
G1 X169.608 Y85.392 E2.4596
G1 X169.608 Y85.434 E2.4612
G1 X171.392 Y87.218 E2.5589
G1 X171.392 Y86.539 E2.5851
G1 X168.461 Y83.608 E2.7456
G1 X169.140 Y83.608 E2.7719
G1 X171.392 Y85.860 E2.8952
G1 X171.392 Y85.182 E2.9215
G1 X169.818 Y83.608 E3.0077
G1 X170.497 Y83.608 E3.0339
G1 X171.392 Y84.503 E3.0829
G1 X171.392 Y83.824 E3.1092
G1 X171.176 Y83.608 E3.1210
G1 X169.608 Y86.113 F10800
G92 E0
G1 X171.392 Y87.897 E0.0977 F576
G1 X171.392 Y88.576 E0.1240
G1 X169.608 Y86.792 E0.2216
G1 X169.608 Y87.470 E0.2479
G1 X171.392 Y89.254 E0.3456
G1 X171.392 Y89.933 E0.3719
G1 X169.608 Y88.149 E0.4695
G1 X169.608 Y88.828 E0.4958
G1 X171.392 Y90.612 E0.5935
G1 X171.392 Y91.291 E0.6198
G1 X169.608 Y89.507 E0.7174
G1 X169.608 Y90.186 E0.7437
G1 X171.392 Y91.970 E0.8414
G1 X171.392 Y92.649 E0.8677
G1 X169.608 Y90.865 E0.9654
G1 X169.608 Y91.543 E0.9916
G1 X171.392 Y93.327 E1.0893
G1 X171.392 Y94.006 E1.1156
G1 X169.608 Y92.222 E1.2133
G1 X169.608 Y92.901 E1.2395
G1 X171.392 Y94.685 E1.3372
G1 X171.392 Y95.364 E1.3635
G1 X169.608 Y93.580 E1.4612
G1 X169.608 Y94.259 E1.4875
G1 X171.392 Y96.043 E1.5851
G1 X171.392 Y96.722 E1.6114
G1 X169.608 Y94.938 E1.7091
G1 X169.608 Y95.616 E1.7354
G1 X171.392 Y97.400 E1.8330
G1 X171.392 Y98.079 E1.8593
G1 X169.608 Y96.295 E1.9570
G1 X169.608 Y96.974 E1.9833
G1 X171.392 Y98.758 E2.0809
G1 X171.392 Y99.437 E2.1072
G1 X169.608 Y97.653 E2.2049
G1 X169.608 Y98.332 E2.2312
G1 X171.392 Y100.116 E2.3289
G1 X171.392 Y100.794 E2.3551
G1 X169.608 Y99.010 E2.4528
G1 X169.608 Y99.689 E2.4791
G1 X171.392 Y101.473 E2.5768
G1 X171.392 Y102.152 E2.6030
G1 X169.608 Y100.368 E2.7007
G1 X169.608 Y101.047 E2.7270
G1 X171.392 Y102.831 E2.8247
G1 X171.392 Y103.510 E2.8510
G1 X169.608 Y101.726 E2.9486
G1 X169.608 Y102.405 E2.9749
G1 X171.392 Y104.189 E3.0726
G1 X171.392 Y104.867 E3.0989
G1 X169.608 Y103.083 E3.1965
G1 X169.608 Y103.762 E3.2228
G1 X171.392 Y105.546 E3.3205
G1 X171.392 Y106.225 E3.3468
G1 X169.608 Y104.441 E3.4444
G1 X169.608 Y105.120 E3.4707
G1 X171.392 Y106.904 E3.5684
G1 X171.392 Y107.583 E3.5947
G1 X169.608 Y105.799 E3.6924
G1 X169.608 Y106.478 E3.7186
G1 X171.392 Y108.261 E3.8163
G1 X171.392 Y108.940 E3.8426
G1 X169.608 Y107.156 E3.9403
G1 X169.608 Y107.835 E3.9665
G1 X171.392 Y109.619 E4.0642
G1 X171.392 Y110.298 E4.0905
G1 X169.608 Y108.514 E4.1882
G1 X169.608 Y109.193 E4.2145
G1 X171.392 Y110.977 E4.3121
G1 X171.392 Y111.656 E4.3384
G1 X169.608 Y109.872 E4.4361
G1 X169.608 Y110.550 E4.4624
G1 X171.392 Y112.334 E4.5600
G1 X171.392 Y113.013 E4.5863
G1 X169.608 Y111.229 E4.6840
G1 X169.608 Y111.908 E4.7103
G1 X171.392 Y113.692 E4.8079
G1 X171.392 Y114.371 E4.8342
G1 X169.608 Y112.587 E4.9319
G1 X169.608 Y113.266 E4.9582
G1 X171.392 Y115.050 E5.0559
G1 X171.392 Y115.729 E5.0821
G1 X169.608 Y113.945 E5.1798
G1 X169.608 Y114.623 E5.2061
G1 X171.392 Y116.407 E5.3038
G1 X171.392 Y117.086 E5.3300
G1 X169.608 Y115.302 E5.4277
G1 X169.608 Y115.981 E5.4540
G1 X171.392 Y117.765 E5.5517
G1 X171.392 Y118.444 E5.5780
G1 X169.608 Y116.660 E5.6756
G1 X169.608 Y117.339 E5.7019
G1 X171.392 Y119.123 E5.7996
G1 X171.392 Y119.801 E5.8259
G1 X169.608 Y118.018 E5.9235
G1 X169.608 Y118.696 E5.9498
G1 X171.392 Y120.480 E6.0475
G1 X171.392 Y121.159 E6.0738
G1 X169.608 Y119.375 E6.1714
G1 X169.608 Y120.054 E6.1977
G1 X171.392 Y121.838 E6.2954
G1 X171.392 Y122.517 E6.3217
