; G-Code generated by Simplify3D(R) Version 4.0.0
; Jan 12, 2018 at 8:59:33 PM
; Settings Summary
;   processName,Process1
;   applyToModels,JoyCon_Grip
;   profileName,Creality CR-10 (modified)
;   profileVersion,2018-01-07 17:26:38
;   baseProfile,Default
;   printMaterial,PLA
;   printQuality,Medium
;   printExtruders,
;   extruderName,Extruder 1
;   extruderToolheadNumber,0
;   extruderDiameter,0.4
;   extruderAutoWidth,1
;   extruderWidth,0.48
;   extrusionMultiplier,0.97
;   extruderUseRetract,1
;   extruderRetractionDistance,5
;   extruderExtraRestartDistance,0
;   extruderRetractionZLift,0.08
;   extruderRetractionSpeed,5400
;   extruderUseCoasting,0
;   extruderCoastingDistance,0.2
;   extruderUseWipe,1
;   extruderWipeDistance,5
;   primaryExtruder,0
;   layerHeight,0.2
;   topSolidLayers,4
;   bottomSolidLayers,4
;   perimeterOutlines,3
;   printPerimetersInsideOut,1
;   startPointOption,2
;   startPointOriginX,0
;   startPointOriginY,0
;   sequentialIslands,0
;   spiralVaseMode,0
;   firstLayerHeightPercentage,90
;   firstLayerWidthPercentage,100
;   firstLayerUnderspeed,0.2
;   useRaft,0
;   raftExtruder,0
;   raftTopLayers,3
;   raftBaseLayers,2
;   raftOffset,3
;   raftSeparationDistance,0.14
;   raftTopInfill,100
;   aboveRaftSpeedMultiplier,0.3
;   useSkirt,1
;   skirtExtruder,0
;   skirtLayers,1
;   skirtOutlines,1
;   skirtOffset,5
;   usePrimePillar,0
;   primePillarExtruder,999
;   primePillarWidth,12
;   primePillarLocation,7
;   primePillarSpeedMultiplier,1
;   useOozeShield,0
;   oozeShieldExtruder,999
;   oozeShieldOffset,2
;   oozeShieldOutlines,1
;   oozeShieldSidewallShape,1
;   oozeShieldSidewallAngle,30
;   oozeShieldSpeedMultiplier,1
;   infillExtruder,0
;   internalInfillPattern,Fast Honeycomb
;   externalInfillPattern,Rectilinear
;   infillPercentage,10
;   outlineOverlapPercentage,15
;   infillExtrusionWidthPercentage,100
;   minInfillLength,5
;   infillLayerInterval,1
;   internalInfillAngles,0
;   overlapInternalInfillAngles,0
;   externalInfillAngles,45,-45
;   generateSupport,0
;   supportExtruder,0
;   supportInfillPercentage,30
;   supportExtraInflation,0
;   supportBaseLayers,0
;   denseSupportExtruder,0
;   denseSupportLayers,0
;   denseSupportInfillPercentage,70
;   supportLayerInterval,1
;   supportHorizontalPartOffset,0.2
;   supportUpperSeparationLayers,1
;   supportLowerSeparationLayers,1
;   supportType,0
;   supportGridSpacing,4
;   maxOverhangAngle,60
;   supportAngles,0
;   temperatureName,Extruder 1 Temperature,Heated Bed
;   temperatureNumber,0,0
;   temperatureSetpointCount,2,1
;   temperatureSetpointLayers,1,2,1
;   temperatureSetpointTemperatures,210,205,0
;   temperatureStabilizeAtStartup,1,1
;   temperatureHeatedBed,0,1
;   temperatureRelayBetweenLayers,0,0
;   temperatureRelayBetweenLoops,0,0
;   fanLayers,1,3,5,6
;   fanSpeeds,0,30,50,100
;   blipFanToFullPower,0
;   adjustSpeedForCooling,1
;   minSpeedLayerTime,15
;   minCoolingSpeedSlowdown,20
;   increaseFanForCooling,1
;   minFanLayerTime,45
;   maxCoolingFanSpeed,50
;   increaseFanForBridging,1
;   bridgingFanSpeed,100
;   use5D,1
;   relativeEdistances,0
;   allowEaxisZeroing,1
;   independentExtruderAxes,0
;   includeM10123,0
;   stickySupport,1
;   applyToolheadOffsets,0
;   gcodeXoffset,0
;   gcodeYoffset,0
;   gcodeZoffset,0
;   overrideMachineDefinition,1
;   machineTypeOverride,0
;   strokeXoverride,300
;   strokeYoverride,300
;   strokeZoverride,400
;   originOffsetXoverride,0
;   originOffsetYoverride,0
;   originOffsetZoverride,0
;   homeXdirOverride,-1
;   homeYdirOverride,-1
;   homeZdirOverride,-1
;   flipXoverride,1
;   flipYoverride,-1
;   flipZoverride,1
;   toolheadOffsets,0,0|0,0|0,0|0,0|0,0|0,0
;   overrideFirmwareConfiguration,1
;   firmwareTypeOverride,RepRap (Marlin/Repetier/Sprinter)
;   GPXconfigOverride,r2
;   baudRateOverride,115200
;   overridePrinterModels,0
;   printerModelsOverride
;   startingGcode,G28 ; home all axes
;   layerChangeGcode,
;   retractionGcode,
;   toolChangeGcode,
;   endingGcode,G1 E-3 F3600; retract 3mm,G28 X; home x axis,M104 S0 ; turn off extruder,M140 S0 ; turn off bed,M84 ; disable motors
;   exportFileFormat,gcode
;   celebration,0
;   celebrationSong,Random Song
;   postProcessing,
;   defaultSpeed,3600
;   outlineUnderspeed,0.5
;   solidInfillUnderspeed,0.8
;   supportUnderspeed,0.8
;   rapidXYspeed,10800
;   rapidZspeed,1002
;   minBridgingArea,20
;   bridgingExtraInflation,0
;   bridgingExtrusionMultiplier,1
;   bridgingSpeedMultiplier,1
;   useFixedBridgingAngle,0
;   fixedBridgingAngle,0
;   applyBridgingToPerimeters,0
;   filamentDiameters,1.75|1.75|1.75|1.75|1.75|1.75
;   filamentPricesPerKg,30|30|30|30|30|30
;   filamentDensities,1.25|1.25|1.25|1.25|1.25|1.25
;   useMinPrintHeight,0
;   minPrintHeight,200
;   useMaxPrintHeight,0
;   maxPrintHeight,0
;   useDiaphragm,0
;   diaphragmLayerInterval,20
;   robustSlicing,1
;   mergeAllIntoSolid,0
;   onlyRetractWhenCrossingOutline,1
;   retractBetweenLayers,0
;   useRetractionMinTravel,1
;   retractionMinTravel,2
;   retractWhileWiping,1
;   onlyWipeOutlines,1
;   avoidCrossingOutline,0
;   maxMovementDetourFactor,3
;   toolChangeRetractionDistance,12
;   toolChangeExtraRestartDistance,-0.5
;   toolChangeRetractionSpeed,600
;   externalThinWallType,0
;   internalThinWallType,2
;   thinWallAllowedOverlapPercentage,10
;   singleExtrusionMinLength,1
;   singleExtrusionMinPrintingWidthPercentage,50
;   singleExtrusionMaxPrintingWidthPercentage,200
;   singleExtrusionEndpointExtension,0.2
;   horizontalSizeCompensation,0
G90
M82
M106 S0
M140 S0
M104 S210 T0
M109 S210 T0
G28 ; home all axes
G92 E0
G1 E-5.0000 F5400
G1 Z0.260 F1002
; process Process1
; layer 1, Z = 0.180
T0
; tool H0.200 W0.480
; skirt
G1 X88.995 Y122.450 F10800
G1 Z0.180 F1002
G1 E0.0000 F1620
G92 E0
G1 X88.999 Y122.446 E0.0002 F720
G1 X89.192 Y122.295 E0.0097
G1 X89.196 Y122.291 E0.0099
G1 X90.669 Y121.242 E0.0799
G1 X90.671 Y121.241 E0.0800
G1 X90.781 Y121.166 E0.0852
G1 X90.784 Y121.165 E0.0853
G1 X91.862 Y120.478 E0.1348
G1 X91.865 Y120.477 E0.1349
G1 X91.980 Y120.407 E0.1401
G1 X91.983 Y120.406 E0.1402
G1 X93.957 Y119.290 E0.2280
G1 X93.960 Y119.288 E0.2281
G1 X94.085 Y119.222 E0.2336
G1 X94.088 Y119.221 E0.2337
G1 X95.172 Y118.685 E0.2806
G1 X95.174 Y118.684 E0.2807
G1 X95.261 Y118.643 E0.2843
G1 X95.263 Y118.642 E0.2844
G1 X96.345 Y118.156 E0.3304
G1 X96.347 Y118.155 E0.3305
G1 X96.434 Y118.118 E0.3341
G1 X96.436 Y118.117 E0.3342
G1 X97.536 Y117.672 E0.3801
G1 X97.538 Y117.671 E0.3802
G1 X97.626 Y117.637 E0.3839
G1 X97.628 Y117.637 E0.3840
G1 X98.743 Y117.232 E0.4299
G1 X98.745 Y117.232 E0.4300
G1 X98.834 Y117.201 E0.4336
G1 X98.836 Y117.200 E0.4337
G1 X99.965 Y116.837 E0.4796
G1 X99.968 Y116.837 E0.4797
G1 X100.058 Y116.810 E0.4834
G1 X100.060 Y116.809 E0.4834
G1 X101.202 Y116.488 E0.5294
G1 X101.204 Y116.487 E0.5294
G1 X101.296 Y116.463 E0.5331
G1 X101.298 Y116.463 E0.5332
G1 X102.451 Y116.184 E0.5791
G1 X102.453 Y116.184 E0.5792
G1 X102.546 Y116.163 E0.5829
G1 X102.548 Y116.163 E0.5830
G1 X103.711 Y115.927 E0.6289
G1 X103.713 Y115.927 E0.6290
G1 X103.807 Y115.910 E0.6327
G1 X103.809 Y115.909 E0.6328
G1 X104.980 Y115.717 E0.6787
G1 X104.983 Y115.717 E0.6788
G1 X105.077 Y115.703 E0.6825
G1 X105.079 Y115.703 E0.6826
G1 X106.256 Y115.555 E0.7285
G1 X106.259 Y115.554 E0.7286
G1 X106.353 Y115.544 E0.7323
G1 X106.355 Y115.544 E0.7324
G1 X107.537 Y115.439 E0.7783
G1 X107.539 Y115.439 E0.7784
G1 X107.634 Y115.433 E0.7821
G1 X107.636 Y115.433 E0.7822
G1 X108.821 Y115.372 E0.8281
G1 X108.823 Y115.372 E0.8282
G1 X108.918 Y115.369 E0.8318
G1 X108.920 Y115.369 E0.8319
G1 X110.106 Y115.352 E0.8779
G1 X110.109 Y115.352 E0.8779
G1 X110.204 Y115.353 E0.8816
G1 X110.206 Y115.353 E0.8817
G1 X111.392 Y115.380 E0.9276
G1 X111.394 Y115.380 E0.9277
G1 X111.489 Y115.384 E0.9314
G1 X111.491 Y115.384 E0.9315
G1 X112.675 Y115.456 E0.9774
G1 X112.678 Y115.456 E0.9775
G1 X112.772 Y115.463 E0.9812
G1 X112.774 Y115.463 E0.9813
G1 X113.956 Y115.579 E1.0272
G1 X113.958 Y115.579 E1.0273
G1 X114.053 Y115.590 E1.0310
G1 X114.056 Y115.590 E1.0311
G1 X115.285 Y115.757 E1.0792
G1 X115.289 Y115.758 E1.0793
G1 X115.429 Y115.781 E1.0848
G1 X115.433 Y115.781 E1.0849
G1 X117.685 Y116.216 E1.1737
G1 X117.688 Y116.216 E1.1739
G1 X117.826 Y116.247 E1.1793
G1 X117.830 Y116.248 E1.1795
G1 X119.003 Y116.542 E1.2263
G1 X119.005 Y116.543 E1.2264
G1 X119.097 Y116.567 E1.2301
G1 X119.099 Y116.568 E1.2301
G1 X120.238 Y116.899 E1.2761
G1 X120.240 Y116.900 E1.2762
G1 X120.331 Y116.928 E1.2798
G1 X120.333 Y116.929 E1.2799
G1 X121.459 Y117.302 E1.3258
G1 X121.461 Y117.302 E1.3259
G1 X121.550 Y117.334 E1.3296
G1 X121.552 Y117.335 E1.3297
G1 X122.664 Y117.749 E1.3756
G1 X122.666 Y117.750 E1.3757
G1 X122.754 Y117.785 E1.3794
G1 X122.756 Y117.786 E1.3794
G1 X123.851 Y118.241 E1.4254
G1 X123.854 Y118.242 E1.4255
G1 X123.941 Y118.280 E1.4291
G1 X123.943 Y118.281 E1.4292
G1 X125.021 Y118.777 E1.4752
G1 X125.023 Y118.778 E1.4753
G1 X125.108 Y118.819 E1.4789
G1 X125.110 Y118.820 E1.4790
G1 X126.169 Y119.356 E1.5250
G1 X126.171 Y119.357 E1.5250
G1 X126.255 Y119.402 E1.5287
G1 X126.257 Y119.403 E1.5288
G1 X127.295 Y119.977 E1.5747
G1 X127.297 Y119.978 E1.5748
G1 X127.379 Y120.026 E1.5785
G1 X127.381 Y120.027 E1.5786
G1 X128.397 Y120.639 E1.6245
G1 X128.398 Y120.641 E1.6246
G1 X128.479 Y120.691 E1.6283
G1 X128.481 Y120.692 E1.6283
G1 X129.481 Y121.347 E1.6746
G1 X129.483 Y121.349 E1.6747
G1 X129.576 Y121.413 E1.6791
G1 X129.579 Y121.414 E1.6792
G1 X130.877 Y122.348 E1.7411
G1 X130.879 Y122.350 E1.7413
G1 X130.882 Y122.353 E1.7414
G1 X169.143 Y122.353 E3.2227
G1 X170.478 Y121.376 E3.2867
G1 X170.481 Y121.374 E3.2868
G1 X170.598 Y121.293 E3.2924
G1 X170.601 Y121.291 E3.2925
G1 X171.643 Y120.615 E3.3406
G1 X171.645 Y120.614 E3.3407
G1 X171.727 Y120.562 E3.3444
G1 X171.729 Y120.561 E3.3445
G1 X172.777 Y119.936 E3.3918
G1 X172.779 Y119.935 E3.3919
G1 X172.864 Y119.886 E3.3956
G1 X172.866 Y119.885 E3.3957
G1 X173.938 Y119.300 E3.4430
G1 X173.940 Y119.299 E3.4431
G1 X174.028 Y119.253 E3.4470
G1 X174.030 Y119.252 E3.4470
G1 X175.166 Y118.688 E3.4961
G1 X175.168 Y118.687 E3.4962
G1 X175.256 Y118.645 E3.5000
G1 X175.258 Y118.644 E3.5001
G1 X176.328 Y118.163 E3.5455
G1 X176.330 Y118.162 E3.5456
G1 X176.418 Y118.125 E3.5493
G1 X176.420 Y118.124 E3.5494
G1 X177.550 Y117.666 E3.5966
G1 X177.552 Y117.665 E3.5967
G1 X177.644 Y117.630 E3.6004
G1 X177.646 Y117.629 E3.6005
G1 X178.793 Y117.215 E3.6478
G1 X178.795 Y117.214 E3.6479
G1 X178.888 Y117.182 E3.6516
G1 X178.890 Y117.182 E3.6517
G1 X180.052 Y116.811 E3.6990
G1 X180.054 Y116.810 E3.6990
G1 X180.148 Y116.782 E3.7028
G1 X180.150 Y116.782 E3.7029
G1 X181.326 Y116.455 E3.7502
G1 X181.328 Y116.454 E3.7503
G1 X181.424 Y116.430 E3.7541
G1 X181.427 Y116.429 E3.7542
G1 X182.636 Y116.143 E3.8023
G1 X182.638 Y116.143 E3.8024
G1 X182.734 Y116.122 E3.8062
G1 X182.737 Y116.122 E3.8063
G1 X183.912 Y115.891 E3.8527
G1 X183.914 Y115.891 E3.8527
G1 X184.010 Y115.874 E3.8565
G1 X184.012 Y115.873 E3.8566
G1 X185.217 Y115.684 E3.9038
G1 X185.219 Y115.684 E3.9039
G1 X185.316 Y115.670 E3.9077
G1 X185.318 Y115.670 E3.9078
G1 X186.530 Y115.527 E3.9550
G1 X186.532 Y115.526 E3.9551
G1 X186.629 Y115.517 E3.9589
G1 X186.631 Y115.516 E3.9589
G1 X187.847 Y115.419 E4.0062
G1 X187.849 Y115.419 E4.0062
G1 X187.945 Y115.413 E4.0100
G1 X187.947 Y115.413 E4.0101
G1 X189.139 Y115.363 E4.0562
G1 X189.141 Y115.363 E4.0563
G1 X189.239 Y115.361 E4.0601
G1 X189.241 Y115.361 E4.0602
G1 X190.488 Y115.356 E4.1085
G1 X190.491 Y115.356 E4.1086
G1 X190.589 Y115.357 E4.1124
G1 X190.592 Y115.357 E4.1125
G1 X191.811 Y115.399 E4.1597
G1 X191.814 Y115.399 E4.1598
G1 X191.911 Y115.405 E4.1636
G1 X191.914 Y115.405 E4.1637
G1 X193.130 Y115.493 E4.2109
G1 X193.133 Y115.494 E4.2110
G1 X193.230 Y115.503 E4.2148
G1 X193.232 Y115.503 E4.2149
G1 X194.445 Y115.638 E4.2621
G1 X194.448 Y115.638 E4.2622
G1 X194.545 Y115.651 E4.2660
G1 X194.547 Y115.651 E4.2661
G1 X195.755 Y115.833 E4.3134
G1 X195.757 Y115.833 E4.3135
G1 X195.854 Y115.849 E4.3173
G1 X195.856 Y115.850 E4.3174
G1 X197.055 Y116.078 E4.3646
G1 X197.058 Y116.078 E4.3647
G1 X197.154 Y116.098 E4.3685
G1 X197.156 Y116.099 E4.3686
G1 X198.345 Y116.372 E4.4158
G1 X198.347 Y116.373 E4.4159
G1 X198.442 Y116.396 E4.4197
G1 X198.444 Y116.397 E4.4198
G1 X199.622 Y116.715 E4.4670
G1 X199.624 Y116.716 E4.4671
G1 X199.718 Y116.743 E4.4709
G1 X199.720 Y116.744 E4.4710
G1 X200.884 Y117.107 E4.5182
G1 X200.887 Y117.108 E4.5183
G1 X200.979 Y117.138 E4.5221
G1 X200.981 Y117.139 E4.5221
G1 X202.131 Y117.546 E4.5694
G1 X202.133 Y117.547 E4.5694
G1 X202.224 Y117.581 E4.5732
G1 X202.226 Y117.582 E4.5733
G1 X203.360 Y118.032 E4.6205
G1 X203.362 Y118.033 E4.6206
G1 X203.451 Y118.070 E4.6244
G1 X203.454 Y118.071 E4.6245
G1 X204.569 Y118.564 E4.6717
G1 X204.571 Y118.565 E4.6718
G1 X204.660 Y118.606 E4.6756
G1 X204.662 Y118.607 E4.6757
G1 X205.759 Y119.143 E4.7229
G1 X205.761 Y119.144 E4.7230
G1 X205.848 Y119.188 E4.7268
G1 X205.850 Y119.189 E4.7269
G1 X206.945 Y119.777 E4.7750
G1 X206.948 Y119.779 E4.7751
G1 X207.073 Y119.850 E4.7807
G1 X207.076 Y119.852 E4.7808
G1 X209.129 Y121.107 E4.8740
G1 X209.132 Y121.109 E4.8741
G1 X209.283 Y121.208 E4.8811
G1 X209.286 Y121.210 E4.8813
G1 X210.765 Y122.263 E4.9515
G1 X210.767 Y122.265 E4.9517
G1 X210.887 Y122.356 E4.9575
G1 X210.890 Y122.358 E4.9576
G1 X211.415 Y122.781 E4.9837
G1 X211.418 Y122.783 E4.9838
G1 X211.526 Y122.875 E4.9893
G1 X211.528 Y122.877 E4.9895
G1 X212.427 Y123.686 E5.0363
G1 X212.430 Y123.689 E5.0364
G1 X212.550 Y123.804 E5.0429
G1 X212.553 Y123.807 E5.0430
G1 X213.408 Y124.684 E5.0905
G1 X213.411 Y124.687 E5.0906
G1 X213.528 Y124.816 E5.0974
G1 X213.531 Y124.819 E5.0975
G1 X214.333 Y125.762 E5.1455
G1 X214.336 Y125.766 E5.1456
G1 X214.455 Y125.917 E5.1531
G1 X214.458 Y125.921 E5.1533
G1 X215.885 Y127.881 E5.2471
G1 X215.904 Y127.921 E5.2488
G1 X216.396 Y129.752 E5.3223
G1 X216.400 Y129.796 E5.3240
G1 X211.685 Y175.197 E7.0911
G1 X211.673 Y175.240 E7.0928
G1 X210.814 Y176.931 E7.1663
G1 X210.787 Y176.966 E7.1680
G1 X208.988 Y178.591 E7.2618
G1 X208.985 Y178.594 E7.2620
G1 X208.837 Y178.717 E7.2695
G1 X208.834 Y178.720 E7.2696
G1 X207.855 Y179.479 E7.3176
G1 X207.852 Y179.481 E7.3177
G1 X207.710 Y179.583 E7.3245
G1 X207.707 Y179.586 E7.3246
G1 X206.690 Y180.268 E7.3721
G1 X206.686 Y180.270 E7.3722
G1 X206.545 Y180.359 E7.3787
G1 X206.542 Y180.361 E7.3788
G1 X205.496 Y180.968 E7.4256
G1 X205.493 Y180.970 E7.4258
G1 X205.368 Y181.037 E7.4313
G1 X205.365 Y181.039 E7.4314
G1 X204.768 Y181.343 E7.4574
G1 X204.765 Y181.345 E7.4575
G1 X204.634 Y181.406 E7.4631
G1 X204.631 Y181.408 E7.4632
G1 X203.115 Y182.074 E7.5273
G1 X203.112 Y182.076 E7.5275
G1 X202.960 Y182.137 E7.5338
G1 X202.956 Y182.138 E7.5340
G1 X200.994 Y182.854 E7.6148
G1 X200.991 Y182.855 E7.6149
G1 X200.878 Y182.894 E7.6195
G1 X200.876 Y182.894 E7.6197
G1 X199.829 Y183.222 E7.6621
G1 X199.827 Y183.223 E7.6622
G1 X199.705 Y183.258 E7.6671
G1 X199.702 Y183.258 E7.6672
G1 X197.695 Y183.780 E7.7475
G1 X197.692 Y183.780 E7.7476
G1 X197.569 Y183.809 E7.7525
G1 X197.566 Y183.810 E7.7526
G1 X196.488 Y184.033 E7.7953
G1 X196.485 Y184.034 E7.7954
G1 X196.360 Y184.057 E7.8003
G1 X196.357 Y184.057 E7.8004
G1 X194.308 Y184.377 E7.8807
G1 X194.305 Y184.377 E7.8808
G1 X194.178 Y184.394 E7.8858
G1 X194.175 Y184.394 E7.8859
G1 X193.080 Y184.510 E7.9285
G1 X193.077 Y184.510 E7.9287
G1 X192.949 Y184.520 E7.9336
G1 X192.946 Y184.520 E7.9337
G1 X190.875 Y184.634 E8.0140
G1 X190.872 Y184.634 E8.0141
G1 X190.745 Y184.638 E8.0191
G1 X190.742 Y184.638 E8.0192
G1 X189.642 Y184.644 E8.0618
G1 X189.639 Y184.644 E8.0619
G1 X189.512 Y184.642 E8.0668
G1 X189.509 Y184.642 E8.0669
G1 X187.416 Y184.549 E8.1480
G1 X187.412 Y184.549 E8.1482
G1 X187.244 Y184.536 E8.1547
G1 X187.240 Y184.535 E8.1549
G1 X185.158 Y184.305 E8.2360
G1 X185.155 Y184.305 E8.2361
G1 X185.029 Y184.288 E8.2410
G1 X185.026 Y184.287 E8.2411
G1 X183.960 Y184.115 E8.2829
G1 X183.958 Y184.115 E8.2830
G1 X183.875 Y184.100 E8.2863
G1 X183.873 Y184.100 E8.2863
G1 X182.813 Y183.893 E8.3281
G1 X182.810 Y183.892 E8.3283
