; G-Code generated by Simplify3D(R) Version 4.0.0
; Jan 13, 2018 at 2:52:05 PM
; Settings Summary
;   processName,Process1
;   applyToModels,minisaur_-_smooth(3)
;   profileName,Creality CR-10 (modified)
;   profileVersion,2018-01-07 17:26:38
;   baseProfile,Default
;   printMaterial,PLA
;   printQuality,Medium
;   printExtruders,
;   extruderName,Extruder 1
;   extruderToolheadNumber,0
;   extruderDiameter,0.4
;   extruderAutoWidth,1
;   extruderWidth,0.48
;   extrusionMultiplier,0.97
;   extruderUseRetract,1
;   extruderRetractionDistance,5
;   extruderExtraRestartDistance,0
;   extruderRetractionZLift,0.08
;   extruderRetractionSpeed,5400
;   extruderUseCoasting,0
;   extruderCoastingDistance,0.2
;   extruderUseWipe,1
;   extruderWipeDistance,5
;   primaryExtruder,0
;   layerHeight,0.2
;   topSolidLayers,4
;   bottomSolidLayers,4
;   perimeterOutlines,3
;   printPerimetersInsideOut,1
;   startPointOption,2
;   startPointOriginX,0
;   startPointOriginY,0
;   sequentialIslands,0
;   spiralVaseMode,0
;   firstLayerHeightPercentage,90
;   firstLayerWidthPercentage,100
;   firstLayerUnderspeed,0.2
;   useRaft,0
;   raftExtruder,0
;   raftTopLayers,3
;   raftBaseLayers,2
;   raftOffset,3
;   raftSeparationDistance,0.14
;   raftTopInfill,100
;   aboveRaftSpeedMultiplier,0.3
;   useSkirt,1
;   skirtExtruder,0
;   skirtLayers,1
;   skirtOutlines,1
;   skirtOffset,5
;   usePrimePillar,0
;   primePillarExtruder,999
;   primePillarWidth,12
;   primePillarLocation,7
;   primePillarSpeedMultiplier,1
;   useOozeShield,0
;   oozeShieldExtruder,999
;   oozeShieldOffset,2
;   oozeShieldOutlines,1
;   oozeShieldSidewallShape,1
;   oozeShieldSidewallAngle,30
;   oozeShieldSpeedMultiplier,1
;   infillExtruder,0
;   internalInfillPattern,Fast Honeycomb
;   externalInfillPattern,Rectilinear
;   infillPercentage,8
;   outlineOverlapPercentage,15
;   infillExtrusionWidthPercentage,100
;   minInfillLength,5
;   infillLayerInterval,1
;   internalInfillAngles,0
;   overlapInternalInfillAngles,0
;   externalInfillAngles,45,-45
;   generateSupport,0
;   supportExtruder,0
;   supportInfillPercentage,30
;   supportExtraInflation,0
;   supportBaseLayers,0
;   denseSupportExtruder,0
;   denseSupportLayers,0
;   denseSupportInfillPercentage,70
;   supportLayerInterval,1
;   supportHorizontalPartOffset,0.2
;   supportUpperSeparationLayers,1
;   supportLowerSeparationLayers,1
;   supportType,0
;   supportGridSpacing,4
;   maxOverhangAngle,60
;   supportAngles,0
;   temperatureName,Extruder 1 Temperature,Heated Bed
;   temperatureNumber,0,0
;   temperatureSetpointCount,2,1
;   temperatureSetpointLayers,1,2,1
;   temperatureSetpointTemperatures,210,205,0
;   temperatureStabilizeAtStartup,1,1
;   temperatureHeatedBed,0,1
;   temperatureRelayBetweenLayers,0,0
;   temperatureRelayBetweenLoops,0,0
;   fanLayers,1,3,5,6
;   fanSpeeds,0,30,50,100
;   blipFanToFullPower,0
;   adjustSpeedForCooling,1
;   minSpeedLayerTime,15
;   minCoolingSpeedSlowdown,20
;   increaseFanForCooling,1
;   minFanLayerTime,45
;   maxCoolingFanSpeed,50
;   increaseFanForBridging,1
;   bridgingFanSpeed,100
;   use5D,1
;   relativeEdistances,0
;   allowEaxisZeroing,1
;   independentExtruderAxes,0
;   includeM10123,0
;   stickySupport,1
;   applyToolheadOffsets,0
;   gcodeXoffset,0
;   gcodeYoffset,0
;   gcodeZoffset,0
;   overrideMachineDefinition,1
;   machineTypeOverride,0
;   strokeXoverride,300
;   strokeYoverride,300
;   strokeZoverride,400
;   originOffsetXoverride,0
;   originOffsetYoverride,0
;   originOffsetZoverride,0
;   homeXdirOverride,-1
;   homeYdirOverride,-1
;   homeZdirOverride,-1
;   flipXoverride,1
;   flipYoverride,-1
;   flipZoverride,1
;   toolheadOffsets,0,0|0,0|0,0|0,0|0,0|0,0
;   overrideFirmwareConfiguration,1
;   firmwareTypeOverride,RepRap (Marlin/Repetier/Sprinter)
;   GPXconfigOverride,r2
;   baudRateOverride,115200
;   overridePrinterModels,0
;   printerModelsOverride
;   startingGcode,G28 ; home all axes
;   layerChangeGcode,
;   retractionGcode,
;   toolChangeGcode,
;   endingGcode,G1 E-3 F3600; retract 3mm,G28 X; home x axis,M104 S0 ; turn off extruder,M140 S0 ; turn off bed,M84 ; disable motors
;   exportFileFormat,gcode
;   celebration,0
;   celebrationSong,Random Song
;   postProcessing,
;   defaultSpeed,3600
;   outlineUnderspeed,0.5
;   solidInfillUnderspeed,0.8
;   supportUnderspeed,0.8
;   rapidXYspeed,10800
;   rapidZspeed,1002
;   minBridgingArea,20
;   bridgingExtraInflation,0
;   bridgingExtrusionMultiplier,1
;   bridgingSpeedMultiplier,1
;   useFixedBridgingAngle,0
;   fixedBridgingAngle,0
;   applyBridgingToPerimeters,0
;   filamentDiameters,1.75|1.75|1.75|1.75|1.75|1.75
;   filamentPricesPerKg,30|30|30|30|30|30
;   filamentDensities,1.25|1.25|1.25|1.25|1.25|1.25
;   useMinPrintHeight,0
;   minPrintHeight,200
;   useMaxPrintHeight,0
;   maxPrintHeight,0
;   useDiaphragm,0
;   diaphragmLayerInterval,20
;   robustSlicing,1
;   mergeAllIntoSolid,0
;   onlyRetractWhenCrossingOutline,1
;   retractBetweenLayers,0
;   useRetractionMinTravel,1
;   retractionMinTravel,2
;   retractWhileWiping,1
;   onlyWipeOutlines,1
;   avoidCrossingOutline,0
;   maxMovementDetourFactor,3
;   toolChangeRetractionDistance,12
;   toolChangeExtraRestartDistance,-0.5
;   toolChangeRetractionSpeed,600
;   externalThinWallType,0
;   internalThinWallType,2
;   thinWallAllowedOverlapPercentage,10
;   singleExtrusionMinLength,1
;   singleExtrusionMinPrintingWidthPercentage,50
;   singleExtrusionMaxPrintingWidthPercentage,200
;   singleExtrusionEndpointExtension,0.2
;   horizontalSizeCompensation,0
G90
M82
M106 S0
M140 S0
M104 S210 T0
M109 S210 T0
G28 ; home all axes
G92 E0
G1 E-5.0000 F5400
G1 Z0.260 F1002
; process Process1
; layer 1, Z = 0.180
T0
; tool H0.200 W0.480
; skirt
G1 X111.621 Y149.791 F10800
G1 Z0.180 F1002
G1 E0.0000 F1620
G92 E0
G1 X111.627 Y149.786 E0.0003 F720
G1 X111.902 Y149.580 E0.0136
G1 X111.908 Y149.575 E0.0139
G1 X112.465 Y149.213 E0.0396
G1 X112.473 Y149.208 E0.0400
G1 X112.828 Y149.016 E0.0556
G1 X112.837 Y149.012 E0.0560
G1 X113.399 Y148.761 E0.0798
G1 X113.406 Y148.759 E0.0801
G1 X113.687 Y148.653 E0.0917
G1 X113.694 Y148.650 E0.0920
G1 X114.223 Y148.486 E0.1134
G1 X114.232 Y148.484 E0.1138
G1 X114.648 Y148.391 E0.1303
G1 X114.657 Y148.390 E0.1307
G1 X115.643 Y148.256 E0.1692
G1 X115.653 Y148.255 E0.1696
G1 X116.109 Y148.234 E0.1873
G1 X116.120 Y148.234 E0.1877
G1 X117.114 Y148.277 E0.2262
G1 X117.123 Y148.277 E0.2265
G1 X117.464 Y148.315 E0.2398
G1 X117.472 Y148.316 E0.2401
G1 X119.603 Y148.698 E0.3240
G1 X120.176 Y148.781 E0.3464
G1 X120.683 Y148.822 E0.3661
G1 X121.176 Y148.821 E0.3852
G1 X123.749 Y148.541 E0.4853
G1 X123.756 Y148.541 E0.4856
G1 X124.050 Y148.526 E0.4970
G1 X124.056 Y148.526 E0.4973
G1 X125.590 Y148.536 E0.5567
G1 X125.599 Y148.536 E0.5570
G1 X125.961 Y148.564 E0.5710
G1 X125.969 Y148.565 E0.5714
G1 X127.156 Y148.743 E0.6178
G1 X127.165 Y148.745 E0.6182
G1 X127.552 Y148.834 E0.6336
G1 X127.561 Y148.836 E0.6339
G1 X128.425 Y149.107 E0.6690
G1 X128.352 Y148.930 E0.6764
G1 X128.349 Y148.920 E0.6768
G1 X128.036 Y147.914 E0.7176
G1 X128.031 Y147.892 E0.7184
G1 X127.923 Y146.914 E0.7565
G1 X127.923 Y146.891 E0.7574
G1 X128.018 Y145.723 E0.8028
G1 X128.024 Y145.697 E0.8038
G1 X128.363 Y144.612 E0.8478
G1 X128.374 Y144.587 E0.8489
G1 X129.094 Y143.342 E0.9046
G1 X129.116 Y143.314 E0.9059
G1 X129.817 Y142.659 E0.9431
G1 X130.227 Y142.050 E0.9715
G1 X130.242 Y142.032 E0.9724
G1 X130.948 Y141.326 E1.0111
G1 X130.966 Y141.312 E1.0120
G1 X131.918 Y140.674 E1.0563
G1 X131.940 Y140.662 E1.0573
G1 X132.932 Y140.264 E1.0987
G1 X132.956 Y140.257 E1.0997
G1 X133.963 Y140.080 E1.1392
G1 X133.981 Y140.079 E1.1399
G1 X134.766 Y140.062 E1.1703
G1 X134.784 Y140.063 E1.1710
G1 X135.739 Y140.190 E1.2083
G1 X135.749 Y140.192 E1.2087
G1 X136.200 Y140.294 E1.2266
G1 X136.210 Y140.297 E1.2270
G1 X136.827 Y140.496 E1.2521
G1 X136.835 Y140.499 E1.2525
G1 X137.194 Y140.646 E1.2675
G1 X137.202 Y140.649 E1.2678
G1 X137.865 Y140.981 E1.2965
G1 X137.873 Y140.986 E1.2969
G1 X138.226 Y141.199 E1.3128
G1 X138.234 Y141.205 E1.3132
G1 X138.944 Y141.717 E1.3471
G1 X138.952 Y141.723 E1.3475
G1 X139.266 Y141.991 E1.3635
G1 X139.273 Y141.997 E1.3638
G1 X139.770 Y142.495 E1.3911
G1 X140.316 Y142.646 E1.4130
G1 X140.322 Y142.648 E1.4132
G1 X140.561 Y142.727 E1.4230
G1 X140.567 Y142.729 E1.4232
G1 X140.999 Y142.896 E1.4412
G1 X141.137 Y142.858 E1.4467
G1 X141.143 Y142.857 E1.4469
G1 X141.928 Y142.680 E1.4781
G1 X141.932 Y142.679 E1.4782
G1 X142.096 Y142.648 E1.4847
G1 X142.100 Y142.647 E1.4849
G1 X142.229 Y142.626 E1.4899
G1 X142.696 Y141.991 E1.5204
G1 X142.699 Y141.988 E1.5206
G1 X142.822 Y141.832 E1.5283
G1 X142.825 Y141.828 E1.5285
G1 X143.616 Y140.911 E1.5754
G1 X142.069 Y140.234 E1.6408
G1 X142.050 Y140.224 E1.6416
G1 X141.295 Y139.719 E1.6768
G1 X141.278 Y139.705 E1.6776
G1 X140.625 Y139.077 E1.7127
G1 X140.616 Y139.067 E1.7132
G1 X140.245 Y138.618 E1.7358
G1 X140.237 Y138.607 E1.7363
G1 X139.678 Y137.748 E1.7760
G1 X139.674 Y137.743 E1.7762
G1 X139.546 Y137.522 E1.7861
G1 X139.543 Y137.517 E1.7863
G1 X139.177 Y136.809 E1.8172
G1 X139.173 Y136.802 E1.8175
G1 X139.038 Y136.492 E1.8306
G1 X139.035 Y136.485 E1.8309
G1 X138.558 Y135.159 E1.8855
G1 X138.551 Y135.127 E1.8867
G1 X138.448 Y133.729 E1.9410
G1 X138.450 Y133.697 E1.9422
G1 X138.723 Y132.338 E1.9959
G1 X138.732 Y132.311 E1.9970
G1 X139.229 Y131.228 E2.0431
G1 X139.243 Y131.204 E2.0442
G1 X140.125 Y130.072 E2.0998
G1 X140.149 Y130.049 E2.1010
G1 X141.274 Y129.216 E2.1552
G1 X141.302 Y129.201 E2.1565
G1 X142.522 Y128.734 E2.2071
G1 X142.544 Y128.728 E2.2079
G1 X143.483 Y128.558 E2.2449
G1 X143.505 Y128.556 E2.2457
G1 X145.193 Y128.566 E2.3111
G1 X145.229 Y128.557 E2.3125
G1 X145.260 Y128.554 E2.3137
G1 X147.122 Y128.569 E2.3858
G1 X147.145 Y128.563 E2.3867
G1 X147.174 Y128.560 E2.3879
G1 X150.932 Y128.557 E2.5334
G1 X150.942 Y128.557 E2.5337
G1 X151.344 Y128.589 E2.5494
G1 X151.354 Y128.590 E2.5497
G1 X152.238 Y128.730 E2.5844
G1 X152.266 Y128.738 E2.5855
G1 X153.402 Y129.213 E2.6332
G1 X153.427 Y129.227 E2.6343
G1 X154.412 Y129.955 E2.6817
G1 X154.428 Y129.969 E2.6825
G1 X155.049 Y130.622 E2.7174
G1 X155.062 Y130.639 E2.7183
G1 X156.058 Y132.146 E2.7882
G1 X156.306 Y132.474 E2.8041
G1 X156.583 Y132.800 E2.8207
G1 X156.795 Y133.015 E2.8324
G1 X156.901 Y133.102 E2.8377
G1 X157.586 Y133.473 E2.8678
G1 X157.594 Y133.478 E2.8682
G1 X157.945 Y133.706 E2.8844
G1 X157.953 Y133.712 E2.8848
G1 X158.695 Y134.288 E2.9212
G1 X158.705 Y134.296 E2.9216
G1 X159.082 Y134.655 E2.9418
G1 X159.090 Y134.664 E2.9423
G1 X159.828 Y135.527 E2.9862
G1 X159.837 Y135.539 E2.9868
G1 X160.189 Y136.071 E3.0115
G1 X160.196 Y136.084 E3.0121
G1 X160.686 Y137.076 E3.0549
G1 X160.691 Y137.088 E3.0554
G1 X160.883 Y137.615 E3.0771
G1 X160.887 Y137.627 E3.0776
G1 X161.100 Y138.501 E3.1124
G1 X161.103 Y138.513 E3.1129
G1 X161.175 Y139.034 E3.1333
G1 X161.176 Y139.046 E3.1338
G1 X161.209 Y140.008 E3.1710
G1 X161.209 Y140.020 E3.1715
G1 X161.178 Y140.513 E3.1906
G1 X161.177 Y140.524 E3.1910
G1 X161.049 Y141.327 E3.2225
G1 X161.047 Y141.338 E3.2230
G1 X160.932 Y141.790 E3.2410
G1 X160.929 Y141.800 E3.2414
G1 X160.619 Y142.675 E3.2773
G1 X160.614 Y142.686 E3.2778
G1 X160.390 Y143.160 E3.2981
G1 X160.384 Y143.171 E3.2986
G1 X159.944 Y143.897 E3.3315
G1 X159.940 Y143.904 E3.3318
G1 X159.742 Y144.185 E3.3451
G1 X159.738 Y144.192 E3.3454
G1 X159.273 Y144.768 E3.3741
G1 X159.383 Y144.787 E3.3784
G1 X159.385 Y144.787 E3.3785
G1 X159.477 Y144.804 E3.3821
G1 X159.479 Y144.804 E3.3822
G1 X162.081 Y145.337 E3.4850
G1 X162.967 Y145.472 E3.5197
G1 X164.121 Y145.598 E3.5647
G1 X172.370 Y146.272 E3.8851
G1 X172.372 Y146.272 E3.8852
G1 X172.477 Y146.283 E3.8892
G1 X172.480 Y146.283 E3.8893
G1 X175.115 Y146.608 E3.9921
G1 X175.118 Y146.608 E3.9922
G1 X175.235 Y146.625 E3.9968
G1 X175.238 Y146.626 E3.9969
G1 X176.156 Y146.782 E4.0330
G1 X176.158 Y146.783 E4.0331
G1 X176.257 Y146.802 E4.0370
G1 X176.259 Y146.802 E4.0371
G1 X177.952 Y147.160 E4.1041
G1 X177.955 Y147.160 E4.1042
G1 X178.076 Y147.189 E4.1090
G1 X178.079 Y147.190 E4.1091
G1 X179.828 Y147.650 E4.1791
G1 X179.831 Y147.650 E4.1792
G1 X179.939 Y147.681 E4.1836
G1 X179.941 Y147.682 E4.1837
G1 X181.640 Y148.209 E4.2525
G1 X181.642 Y148.210 E4.2526
G1 X181.731 Y148.239 E4.2562
G1 X181.733 Y148.240 E4.2563
G1 X183.474 Y148.851 E4.3278
G1 X183.475 Y148.852 E4.3278
G1 X183.548 Y148.878 E4.3308
G1 X183.549 Y148.879 E4.3309
G1 X185.336 Y149.567 E4.4050
G1 X185.338 Y149.568 E4.4051
G1 X185.413 Y149.598 E4.4082
G1 X185.415 Y149.599 E4.4083
G1 X189.472 Y151.311 E4.5788
G1 X189.488 Y151.319 E4.5795
G1 X190.112 Y151.695 E4.6077
G1 X190.126 Y151.705 E4.6083
G1 X190.778 Y152.236 E4.6409
G1 X190.789 Y152.246 E4.6415
G1 X191.221 Y152.696 E4.6656
G1 X191.231 Y152.707 E4.6662
G1 X191.788 Y153.449 E4.7021
G1 X191.797 Y153.464 E4.7028
G1 X192.153 Y154.118 E4.7316
G1 X192.160 Y154.134 E4.7323
G1 X192.518 Y155.104 E4.7723
G1 X192.523 Y155.123 E4.7731
G1 X192.681 Y155.938 E4.8052
G1 X192.683 Y155.957 E4.8060
G1 X192.716 Y157.048 E4.8482
G1 X192.715 Y157.064 E4.8488
G1 X192.650 Y157.717 E4.8743
G1 X192.648 Y157.732 E4.8749
G1 X192.461 Y158.541 E4.9070
G1 X192.457 Y158.555 E4.9076
G1 X192.244 Y159.142 E4.9317
G1 X192.238 Y159.156 E4.9323
G1 X191.654 Y160.304 E4.9822
G1 X191.638 Y160.328 E4.9833
G1 X190.821 Y161.272 E5.0317
G1 X190.799 Y161.292 E5.0328
G1 X189.619 Y162.126 E5.0887
G1 X189.598 Y162.137 E5.0896
G1 X188.681 Y162.546 E5.1285
G1 X188.659 Y162.553 E5.1294
G1 X187.526 Y162.812 E5.1744
G1 X187.511 Y162.814 E5.1750
G1 X186.872 Y162.877 E5.1998
G1 X186.857 Y162.878 E5.2004
G1 X186.028 Y162.856 E5.2325
G1 X186.019 Y162.855 E5.2329
G1 X185.649 Y162.819 E5.2473
G1 X185.640 Y162.817 E5.2476
G1 X184.378 Y162.599 E5.2972
G1 X183.383 Y162.461 E5.3361
G1 X182.292 Y162.357 E5.3786
G1 X180.491 Y162.317 E5.4483
G1 X179.211 Y162.349 E5.4979
G1 X177.706 Y162.440 E5.5562
G1 X176.092 Y162.602 E5.6190
G1 X174.447 Y162.846 E5.6834
G1 X172.803 Y163.188 E5.7484
G1 X172.092 Y163.375 E5.7769
G1 X171.361 Y163.601 E5.8065
G1 X168.564 Y164.578 E5.9212
G1 X166.350 Y165.456 E6.0134
G1 X159.317 Y168.427 E6.3090
G1 X159.315 Y168.428 E6.3091
G1 X159.222 Y168.465 E6.3130
G1 X159.220 Y168.466 E6.3130
G1 X157.670 Y169.050 E6.3772
G1 X157.667 Y169.051 E6.3773
G1 X157.532 Y169.098 E6.3828
G1 X157.529 Y169.099 E6.3829
G1 X156.746 Y169.345 E6.4147
G1 X156.743 Y169.346 E6.4148
G1 X156.613 Y169.383 E6.4201
G1 X156.609 Y169.384 E6.4202
G1 X155.239 Y169.737 E6.4750
G1 X155.236 Y169.738 E6.4751
G1 X155.104 Y169.768 E6.4804
G1 X155.101 Y169.769 E6.4805
G1 X154.325 Y169.925 E6.5111
G1 X154.322 Y169.925 E6.5113
G1 X154.184 Y169.949 E6.5167
G1 X154.180 Y169.950 E6.5168
G1 X152.854 Y170.142 E6.5687
G1 X152.850 Y170.143 E6.5689
G1 X152.671 Y170.162 E6.5758
G1 X152.667 Y170.163 E6.5760
G1 X151.320 Y170.262 E6.6283
G1 X151.315 Y170.262 E6.6284
G1 X151.135 Y170.269 E6.6354
G1 X151.131 Y170.269 E6.6356
G1 X149.863 Y170.273 E6.6847
G1 X149.859 Y170.273 E6.6848
G1 X149.689 Y170.268 E6.6914
G1 X149.685 Y170.268 E6.6916
G1 X148.477 Y170.191 E6.7385
G1 X148.473 Y170.191 E6.7386
G1 X148.313 Y170.176 E6.7448
G1 X148.309 Y170.175 E6.7450
G1 X147.163 Y170.030 E6.7897
G1 X147.159 Y170.029 E6.7898
G1 X147.012 Y170.006 E6.7956
G1 X147.008 Y170.006 E6.7958
G1 X145.926 Y169.804 E6.8384
G1 X145.923 Y169.803 E6.8385
G1 X145.790 Y169.775 E6.8438
G1 X145.787 Y169.774 E6.8439
G1 X144.772 Y169.528 E6.8843
G1 X144.769 Y169.527 E6.8844
G1 X144.651 Y169.496 E6.8892
G1 X144.649 Y169.495 E6.8893
G1 X143.682 Y169.211 E6.9283
G1 X143.679 Y169.210 E6.9284
G1 X143.537 Y169.164 E6.9342
G1 X143.534 Y169.163 E6.9343
G1 X141.883 Y168.573 E7.0022
G1 X141.880 Y168.572 E7.0023
G1 X141.749 Y168.521 E7.0077
G1 X141.746 Y168.519 E7.0079
G1 X140.052 Y167.807 E7.0790
G1 X139.960 Y167.850 E7.0830
G1 X139.591 Y168.110 E7.1004
G1 X139.231 Y168.414 E7.1187
G1 X138.252 Y169.330 E7.1706
G1 X138.247 Y169.335 E7.1709
G1 X138.016 Y169.527 E7.1825
G1 X138.011 Y169.531 E7.1827
G1 X137.329 Y170.033 E7.2155
G1 X137.323 Y170.038 E7.2158
G1 X137.049 Y170.214 E7.2284
G1 X137.042 Y170.218 E7.2287
